X:20
T:Gentle Lady
R:jig
C:Theresa Morrison
D:Laments and Merry Melodies, Theresa Morrison
H:writtem in memory of the composer's mother Theresa MacNeil MacLean 1875-1951
Z:Paul Stewart Cranford (P.S.C.), <http://www.cranfordpub.com>
L:1/8
M:6/8
Q:300
K:Bb
b|f2 d cBc|dBG F2 E|DB,D FBd|fbg fbg|
f2 d cBc|dBG F2 E|DB,D FBd|cBd B2:|
|:F|DB,D FBd|fbg fbf|gbg fbf|[1gbd c2 F|
DB,D FBd|fbg fbf|gbg fdc|dBB B2:|
[2gbd c2 B|f2 d cBc|dBG F2 E|DB,D FBd|cBd B2|]
